X: 17114
T: Heights Of Muingvuara, The
R: reel
M: 4/4
K: Gmajor
DEFD GFDC|B,G,B,C DEFD|~G3B dBGB|A=FDE FDCF|
DEFD GFDC|B,G,B,C DEFD|~G3B AGFA|1 DGGF ~G3F:|2 DGGF G2Bd||
|:gBdg GBdg|bgag edef|gBBA B2BA|GBdB A2Bd|
gBdg GBdg|bgag edef|gd~d2 ^cdBG|1 FGAF G2Bd:|2 FGAF ~G3F||

